assets/img/braze_icons/message-text-square-02.svg

<svg fill="none" height="24" viewBox="0 0 24 24" width="24" xmlns="http://www.w3.org/2000/svg"><path clip-rule="evenodd" d="m7.7588 2h8.4826c.805-.00001 1.4693-.00002 2.0105.04419.5621.04593 1.0788.14449 1.5642.39179.7526.38349 1.3645.99541 1.748 1.74806.2473.48533.3459 1.00204.3918 1.56414.0442.54118.0442 1.20554.0442 2.0105v5.48262c0 .805 0 1.4693-.0442 2.0105-.0459.5621-.1445 1.0788-.3918 1.5642-.3835.7526-.9954 1.3645-1.748 1.748-.4854.2473-1.0021.3459-1.5642.3918-.5412.0442-1.2055.0442-2.0105.0442h-2.5576c-.6641 0-.8575.0047-1.0334.0408-.1766.0363-.3474.0962-.5079.1782-.1599.0817-.3139.1988-.8325.6137l-2.41312 1.9305c-.18368.147-.37091.2968-.53551.4057-.15743.1041-.46267.2904-.85965.2908-.45682.0005-.88896-.2072-1.17394-.5642-.24766-.3103-.29286-.665-.30993-.853-.01785-.1965-.0178-.4363-.01776-.6715l.00001-1.3792c-.39181-.0129-.72781-.0457-1.03528-.1281-1.38037-.3699-2.45856-1.4481-2.82843-2.8284-.13709-.5117-.13677-1.1023-.13634-1.8977l.00005-6.3789c-.00002-.80497-.00003-1.46933.04419-2.01052.04593-.5621.14449-1.07881.39178-1.56414.38349-.75265.99542-1.36457 1.74806-1.74806.48534-.2473 1.00204-.34586 1.56414-.39179.54119-.04421 1.20556-.0442 2.01053-.04419zm-1.7588 6.5c0-.55228.44772-1 1-1h5c.5523 0 1 .44772 1 1 0 .55229-.4477 1-1 1h-5c-.55228 0-1-.44771-1-1zm1 2.5c-.55228 0-1 .4477-1 1s.44772 1 1 1h8c.5523 0 1-.4477 1-1s-.4477-1-1-1z" fill="#801ed7" fill-rule="evenodd"/></svg>

<svg width="24" height="24" viewBox="0 0 24 24" fill="none" xmlns="http://www.w3.org/2000/svg">
<path fill-rule="evenodd" clip-rule="evenodd" d="M7.7588 2H16.2414C17.0464 1.99999 17.7107 1.99998 18.2519 2.04419C18.814 2.09012 19.3307 2.18868 19.8161 2.43598C20.5687 2.81947 21.1806 3.43139 21.5641 4.18404C21.8114 4.66937 21.91 5.18608 21.9559 5.74818C22.0001 6.28936 22.0001 6.95372 22.0001 7.75868V13.2413C22.0001 14.0463 22.0001 14.7106 21.9559 15.2518C21.91 15.8139 21.8114 16.3306 21.5641 16.816C21.1806 17.5686 20.5687 18.1805 19.8161 18.564C19.3307 18.8113 18.814 18.9099 18.2519 18.9558C17.7107 19 17.0464 19 16.2414 19H13.6838C13.0197 19 12.8263 19.0047 12.6504 19.0408C12.4738 19.0771 12.303 19.137 12.1425 19.219C11.9826 19.3007 11.8286 19.4178 11.31 19.8327L8.89688 21.7632C8.7132 21.9102 8.52597 22.06 8.36137 22.1689C8.20394 22.273 7.8987 22.4593 7.50172 22.4597C7.0449 22.4602 6.61276 22.2525 6.32778 21.8955C6.08012 21.5852 6.03492 21.2305 6.01785 21.0425C6 20.846 6.00005 20.6062 6.00009 20.371L6.0001 18.9918C5.60829 18.9789 5.27229 18.9461 4.96482 18.8637C3.58445 18.4938 2.50626 17.4156 2.13639 16.0353C1.9993 15.5236 1.99962 14.933 2.00005 14.1376L2.0001 7.7587C2.00008 6.95373 2.00007 6.28937 2.04429 5.74818C2.09022 5.18608 2.18878 4.66937 2.43607 4.18404C2.81956 3.43139 3.43149 2.81947 4.18413 2.43598C4.66947 2.18868 5.18617 2.09012 5.74827 2.04419C6.28946 1.99998 6.95383 1.99999 7.7588 2ZM6 8.5C6 7.94772 6.44772 7.5 7 7.5H12C12.5523 7.5 13 7.94772 13 8.5C13 9.05229 12.5523 9.5 12 9.5H7C6.44772 9.5 6 9.05229 6 8.5ZM7 11C6.44772 11 6 11.4477 6 12C6 12.5523 6.44772 13 7 13H15C15.5523 13 16 12.5523 16 12C16 11.4477 15.5523 11 15 11H7Z" fill="#801ED7"/>
</svg>
